src/assets/filled/Status.svg

<svg width="24" height="24" viewBox="0 0 24 24"  xmlns="http://www.w3.org/2000/svg">
<path d="M9.00011 14.2197H3.92011C3.31011 14.2197 2.75011 14.5297 2.43011 15.0497C2.11011 15.5597 2.08011 16.1697 2.34011 16.7097C3.57011 19.2297 5.79011 21.2097 8.43011 22.1397C8.61011 22.1997 8.81011 22.2397 9.00011 22.2397C9.35011 22.2397 9.70011 22.1297 10.0001 21.9197C10.4701 21.5897 10.7501 21.0497 10.7501 20.4797L10.7601 15.9797C10.7601 15.5097 10.5801 15.0697 10.2501 14.7397C9.91011 14.4097 9.47011 14.2197 9.00011 14.2197Z" />
<path d="M22.4799 9.6C21.3599 4.68 17.0499 1.25 11.9999 1.25C6.94993 1.25 2.63993 4.68 1.51993 9.6C1.39993 10.12 1.51993 10.65 1.85993 11.07C2.19993 11.49 2.69993 11.73 3.23993 11.73H20.7699C21.3099 11.73 21.8099 11.49 22.1499 11.07C22.4799 10.65 22.5999 10.11 22.4799 9.6Z" />
<path d="M20.06 14.2698L15 14.2598C14.53 14.2598 14.09 14.4398 13.76 14.7698C13.43 15.0998 13.25 15.5398 13.25 16.0098L13.26 20.4898C13.26 21.0598 13.54 21.5998 14.01 21.9298C14.31 22.1398 14.66 22.2498 15.01 22.2498C15.2 22.2498 15.39 22.2198 15.57 22.1498C18.19 21.2298 20.41 19.2598 21.64 16.7698C21.9 16.2398 21.87 15.6198 21.56 15.1198C21.23 14.5798 20.67 14.2698 20.06 14.2698Z" />
</svg>

<?xml version="1.0" encoding="UTF-8"?>
<svg width="24" height="24" viewBox="0 0 24 24" xmlns="http://www.w3.org/2000/svg">
 <path d="m9.0001 14.22h-5.08c-0.61 0-1.17 0.31-1.49 0.83-0.32 0.51-0.35 1.12-0.09 1.66 1.23 2.52 3.45 4.5 6.09 5.43 0.18 0.06 0.38 0.1 0.57 0.1 0.35 0 0.7-0.11 0.99999-0.32 0.47-0.33 0.75-0.87 0.75-1.44l0.01-4.5c0-0.47-0.18-0.91-0.51-1.24-0.33999-0.33-0.77999-0.52-1.25-0.52z"/>
 <path d="m22.48 9.6c-1.12-4.92-5.43-8.35-10.48-8.35-5.05 0-9.36 3.43-10.48 8.35-0.12 0.52 0 1.05 0.34 1.47s0.84 0.66 1.38 0.66h17.53c0.54 0 1.04-0.24 1.38-0.66 0.33-0.42 0.45-0.96 0.33-1.47z"/>
 <path d="m20.06 14.27-5.06-0.01c-0.47 0-0.91 0.18-1.24 0.51s-0.51 0.77-0.51 1.24l0.01 4.48c0 0.57 0.28 1.11 0.75 1.44 0.3 0.21 0.65 0.32 1 0.32 0.19 0 0.38-0.03 0.56-0.1 2.62-0.92 4.84-2.89 6.07-5.38 0.26-0.53 0.23-1.15-0.08-1.65-0.33-0.54-0.89-0.85-1.5-0.85z"/>
</svg>
